app/static/images/SVGs/python.svg

<svg enable-background="new 0 0 17.056 17.056" viewBox="0 0 17.056 17.056" xmlns="http://www.w3.org/2000/svg"><g fill="#030104"><path d="m11.298 8.02c1.295-.587 1.488-5.055.724-6.371-.998-1.718-5.742-1.373-7.24-.145-.172.61-.154 1.717-.146 2.597h4.702v.412h-4.701c0 .006-2.093.013-2.093.013-3.609 0-3.534 7.838 1.228 7.838 0 0 .175-1.736.481-2.606.945-2.685 4.915-.772 7.045-1.738zm-4.923-4.555c-.542 0-.981-.439-.981-.982 0-.542.439-.982.981-.982.543 0 .982.44.982.982.001.542-.439.982-.982.982z"/><path d="m13.12 4.691s-.125 1.737-.431 2.606c-.945 2.684-4.914.772-7.045 1.738-1.294.587-1.489 5.055-.724 6.371.997 1.719 5.741 1.374 7.24.145.172-.609.154-1.716.146-2.596h-4.703v-.412h4.701c0-.006 2.317-.013 2.317-.013 3.326 0 3.624-7.839-1.501-7.839zm-2.722 8.729c.542 0 .982.439.982.982 0 .542-.44.981-.982.981s-.981-.439-.981-.981c0-.543.439-.982.981-.982z"/></g></svg>

<?xml version="1.0" encoding="iso-8859-1"?>
<!-- Generator: Adobe Illustrator 18.1.1, SVG Export Plug-In . SVG Version: 6.00 Build 0)  -->
<svg version="1.1" id="Capa_1" xmlns="http://www.w3.org/2000/svg" xmlns:xlink="http://www.w3.org/1999/xlink" x="0px" y="0px"
	 viewBox="0 0 17.056 17.056" style="enable-background:new 0 0 17.056 17.056;" xml:space="preserve">
<g>
	<g>
		<path style="fill:#030104;" d="M11.298,8.02c1.295-0.587,1.488-5.055,0.724-6.371c-0.998-1.718-5.742-1.373-7.24-0.145
			C4.61,2.114,4.628,3.221,4.636,4.101h4.702v0.412H4.637c0,0.006-2.093,0.013-2.093,0.013c-3.609,0-3.534,7.838,1.228,7.838
			c0,0,0.175-1.736,0.481-2.606C5.198,7.073,9.168,8.986,11.298,8.02z M6.375,3.465c-0.542,0-0.981-0.439-0.981-0.982
			c0-0.542,0.439-0.982,0.981-0.982c0.543,0,0.982,0.44,0.982,0.982C7.358,3.025,6.918,3.465,6.375,3.465z"/>
		<path style="fill:#030104;" d="M13.12,4.691c0,0-0.125,1.737-0.431,2.606c-0.945,2.684-4.914,0.772-7.045,1.738
			C4.35,9.622,4.155,14.09,4.92,15.406c0.997,1.719,5.741,1.374,7.24,0.145c0.172-0.609,0.154-1.716,0.146-2.596H7.603v-0.412h4.701
			c0-0.006,2.317-0.013,2.317-0.013C17.947,12.53,18.245,4.691,13.12,4.691z M10.398,13.42c0.542,0,0.982,0.439,0.982,0.982
			c0,0.542-0.44,0.981-0.982,0.981s-0.981-0.439-0.981-0.981C9.417,13.859,9.856,13.42,10.398,13.42z"/>
	</g>
</g>
<g>
</g>
<g>
</g>
<g>
</g>
<g>
</g>
<g>
</g>
<g>
</g>
<g>
</g>
<g>
</g>
<g>
</g>
<g>
</g>
<g>
</g>
<g>
</g>
<g>
</g>
<g>
</g>
<g>
</g>
</svg>
